白日梦.cube
# 白日梦 LUT v5 - 基于12张作品数值分析
TITLE "白日梦"
LUT_3D_SIZE 32
DOMAIN_MIN 0.0 0.0 0.0
DOMAIN_MAX 1.0 1.0 1.0
0.007631 0.040417 0.038477
0.028739 0.042636 0.041226
0.052131 0.044400 0.040797
0.075877 0.045633 0.042654
0.099778 0.046876 0.044521
0.123835 0.048131 0.046400
0.148048 0.049396 0.048289
0.172416 0.050672 0.050188
0.196940 0.051959 0.052099
0.221620 0.053257 0.054021
0.246455 0.054566 0.055953
0.271446 0.055885 0.057896
0.296593 0.057215 0.059850
0.321896 0.058557 0.061815
0.347354 0.059909 0.063791
0.372968 0.061271 0.065777
0.380142 0.033655 0.038943
0.406869 0.035082 0.041013
0.433757 0.036520 0.043094
0.460805 0.037970 0.045187
0.488013 0.039430 0.047291
0.515382 0.040902 0.049406
0.542912 0.042385 0.051532
0.570602 0.043880 0.053669
0.598453 0.045385 0.055817
0.626464 0.046901 0.057977
0.654636 0.048429 0.060147
0.682968 0.049968 0.062329
0.711461 0.051518 0.064522
0.740114 0.053079 0.066727
0.768928 0.054652 0.068942
0.797902 0.056235 0.071169
0.013460 0.062996 0.043890
0.034723 0.065310 0.046672
0.056126 0.067641 0.049472
0.080469 0.069722 0.046330
0.104534 0.071059 0.048219
0.128754 0.072407 0.050118
0.153131 0.073766 0.052029
0.177662 0.075136 0.053950
0.202350 0.076517 0.055882
0.227193 0.077908 0.057824
0.252192 0.079310 0.059778
0.277347 0.080723 0.061742
0.302657 0.082147 0.063718
0.328123 0.083582 0.065704
0.333757 0.056730 0.038867
0.360332 0.058231 0.040937
0.387067 0.059744 0.043018
0.413963 0.061268 0.045110
0.441019 0.062803 0.047213
0.468236 0.064349 0.049328
0.495613 0.065906 0.051453
0.523150 0.067475 0.053590
0.550849 0.069054 0.055738
0.578707 0.070645 0.057897
0.606726 0.072247 0.060067
0.634906 0.073860 0.062249
0.663246 0.075484 0.064442
0.691747 0.077120 0.066645
0.720408 0.078767 0.068860
0.749230 0.080424 0.071086
0.778126 0.082450 0.072796
0.807169 0.084544 0.074430
0.019356 0.085883 0.049369
0.040774 0.088292 0.052186
0.062332 0.090719 0.055020
0.085104 0.094136 0.050048
0.109332 0.095567 0.051958
0.133716 0.097009 0.053879
0.158255 0.098462 0.055810
0.182951 0.099925 0.057753
0.207802 0.101400 0.059706
0.232808 0.102885 0.061670
0.257971 0.104381 0.063645
0.283289 0.105888 0.065631
0.287384 0.079799 0.038791
0.313806 0.081375 0.040860
0.340389 0.082962 0.042941
0.367132 0.084560 0.045033
0.394036 0.086169 0.047135
0.421100 0.087790 0.049250
0.448324 0.089421 0.051375
0.475710 0.091064 0.053511
0.503255 0.092718 0.055659
0.530961 0.094383 0.057817
0.558828 0.096059 0.059987
0.586855 0.097747 0.062168
0.615043 0.099445 0.064361
0.643391 0.101155 0.066564
0.671900 0.102876 0.068779
0.700569 0.104608 0.071004
0.729317 0.106692 0.072736
0.758207 0.108861 0.074369
0.787258 0.111041 0.076014
0.816469 0.113232 0.077670
0.025318 0.109078 0.054915
0.046891 0.111583 0.057766
0.068604 0.114106 0.060634
0.090458 0.116646 0.063519
0.114172 0.120402 0.055739
0.138719 0.121938 0.057681
0.163422 0.123484 0.059634
0.188281 0.125041 0.061598
0.213295 0.126609 0.063572
0.238465 0.128188 0.065557
0.241022 0.102864 0.038715
0.267291 0.104514 0.040784
0.293721 0.106175 0.042864
0.320312 0.107847 0.044955
0.347063 0.109531 0.047058
0.373975 0.111225 0.049172
0.401047 0.112931 0.051296
0.428280 0.114648 0.053432
0.455673 0.116376 0.055580
0.483227 0.118116 0.057738
0.510941 0.119866 0.059907
0.538815 0.121628 0.062088
0.566851 0.123401 0.064280
0.595046 0.125185 0.066483
0.623402 0.126980 0.068697
0.651919 0.128786 0.070922
0.680518 0.130929 0.072676
0.709256 0.133172 0.074309
0.738154 0.135427 0.075954
0.767213 0.137692 0.077609
0.796432 0.139969 0.079276
0.825812 0.142257 0.080954
0.031348 0.132582 0.060528
0.053075 0.135183 0.063413
0.074943 0.137801 0.066315
0.096952 0.140437 0.069234
0.119101 0.143089 0.072171
0.143764 0.147192 0.061525
0.168630 0.148832 0.063499
0.193652 0.150483 0.065484
0.194670 0.125922 0.038639
0.220787 0.127647 0.040708
0.247065 0.129382 0.042787
0.273503 0.131129 0.044878
0.300102 0.132887 0.046980
0.326861 0.134655 0.049094
0.353781 0.136436 0.051218
0.380861 0.138227 0.053354
0.408101 0.140029 0.055500
0.435503 0.141843 0.057658
0.463064 0.143668 0.059827
0.490787 0.145503 0.062008
0.518669 0.147351 0.064199
0.546712 0.149209 0.066402
0.574916 0.151078 0.068615
0.603280 0.152959 0.070840
0.631730 0.155161 0.072616
0.660316 0.157478 0.074249
0.689061 0.159807 0.075893
0.717968 0.162147 0.077548
0.747034 0.164498 0.079215
0.776262 0.166860 0.080892
0.805650 0.169233 0.082581
0.835198 0.171617 0.084281
0.037444 0.156395 0.066208
0.059326 0.159091 0.069127
0.081349 0.161805 0.072063
0.103513 0.164536 0.075016
0.125817 0.167284 0.077987
0.148261 0.170050 0.080975
0.148330 0.148976 0.038563
0.174295 0.150774 0.040631
0.200420 0.152584 0.042711
0.226705 0.154405 0.044801
0.253152 0.156237 0.046903
0.279758 0.158080 0.049016
0.306525 0.159934 0.051140
0.333453 0.161800 0.053275
0.360541 0.163677 0.055421
0.387790 0.165564 0.057579
0.415199 0.167463 0.059747
0.442769 0.169374 0.061927
0.470499 0.171295 0.064118
0.498390 0.173228 0.066320
0.526441 0.175171 0.068534
0.554652 0.177126 0.070758
0.582954 0.179387 0.072556
0.611386 0.181779 0.074189
0.639980 0.184182 0.075832
0.668733 0.186596 0.077487
0.697648 0.189021 0.079153
0.726723 0.191457 0.080830
0.755958 0.193905 0.082518
0.785354 0.196363 0.084218
0.814910 0.198833 0.085928
0.844627 0.201314 0.087650
0.043606 0.180516 0.071955
0.065644 0.183308 0.074907
0.087822 0.186117 0.077877
0.110140 0.188944 0.080865
0.105772 0.166792 0.055536
0.129070 0.169741 0.058651
0.152513 0.172709 0.061785
0.179919 0.177675 0.044724
0.206212 0.179582 0.046825
0.232666 0.181499 0.048938
0.259281 0.183428 0.051061
0.286056 0.185368 0.053196
0.312992 0.187319 0.055342
0.340088 0.189281 0.057499
0.367345 0.191254 0.059667
0.394762 0.193238 0.061847
0.422339 0.195234 0.064037
0.450078 0.197241 0.066239
0.477976 0.199259 0.068452
0.506036 0.201288 0.070676
0.534188 0.203608 0.072496
0.562468 0.206074 0.074128
0.590909 0.208551 0.075772
0.619510 0.211039 0.077426
0.648272 0.213539 0.079092
0.677194 0.216049 0.080768
0.706277 0.218571 0.082456
0.735521 0.221104 0.084155
0.764924 0.223648 0.085865
0.794489 0.226203 0.087587
0.824214 0.228769 0.089319
0.854099 0.231347 0.091063
0.049836 0.204945 0.077768
0.072028 0.207833 0.080755
0.066352 0.186328 0.055421
0.089520 0.189340 0.058536
0.112833 0.192371 0.061669
0.136291 0.195419 0.064820
0.159894 0.198485 0.067988
0.164459 0.162991 0.068366
0.212048 0.206916 0.050983
0.238670 0.208930 0.053117
0.265453 0.210955 0.055263
0.292397 0.212991 0.057420
0.319501 0.215039 0.059587
0.346766 0.217098 0.061766
0.374191 0.219167 0.063957
0.401777 0.221248 0.066158
0.429523 0.223341 0.068370
0.457430 0.225444 0.070594
0.485433 0.227823 0.072436
0.513561 0.230363 0.074068
0.541849 0.232915 0.075711
0.570298 0.235477 0.077365
0.598907 0.238051 0.079030
0.627677 0.240636 0.080706
0.656608 0.243232 0.082394
0.685698 0.245839 0.084092
0.714950 0.248457 0.085802
0.744362 0.251087 0.087523
0.773934 0.253727 0.089255
0.803667 0.256379 0.090999
0.833560 0.259042 0.092753
0.863614 0.261716 0.094519
0.015594 0.167066 0.053292
0.037480 0.169988 0.056250
0.059504 0.172927 0.059226
0.081666 0.175882 0.062218
0.103965 0.178855 0.065228
0.126402 0.181844 0.068254
0.148976 0.184851 0.071297
0.171688 0.187874 0.074358
0.194537 0.190915 0.077435
0.244717 0.236696 0.057340
0.271669 0.238818 0.059507
0.298781 0.240951 0.061686
0.326054 0.243095 0.063876
0.353487 0.245251 0.066077
0.381081 0.247417 0.068289
0.408835 0.249595 0.070512
0.436689 0.252033 0.072377
0.464665 0.254647 0.074008
0.492801 0.257273 0.075650
0.521097 0.259910 0.077304
0.549554 0.262558 0.078969
0.578171 0.265217 0.080644
0.606949 0.267887 0.082332
0.635887 0.270568 0.084030
0.664986 0.273261 0.085739
0.694245 0.275965 0.087460
0.723665 0.278680 0.089191
0.753246 0.281406 0.090934
0.782987 0.284143 0.092688
0.812888 0.286891 0.094454
0.842950 0.289651 0.096230
0.873172 0.292422 0.098017
0.021826 0.191596 0.059116
0.043864 0.194612 0.062108
0.066040 0.197644 0.065117
0.088353 0.200693 0.068142
0.110804 0.203759 0.071185
0.133392 0.206843 0.074245
0.156118 0.209943 0.077322
0.178981 0.213060 0.080415
0.201982 0.216194 0.083526
0.225121 0.219345 0.086653
0.277927 0.267018 0.063795
0.305208 0.269247 0.065996
0.332649 0.271488 0.068207
0.360251 0.273740 0.070430
0.387957 0.276237 0.072317
0.415780 0.278926 0.073948
0.443763 0.281626 0.075590
0.471907 0.284337 0.077243
0.500211 0.287059 0.078907
0.528676 0.289792 0.080583
0.557301 0.292537 0.082269
0.586087 0.295293 0.083967
0.615033 0.298059 0.085676
0.664140 0.300837 0.067396
0.693408 0.303627 0.069128
0.722835 0.306427 0.070870
0.752424 0.309238 0.072624
0.782173 0.312061 0.074388
0.812082 0.314895 0.076164
0.842152 0.317740 0.077951
0.872382 0.320596 0.079750
0.902773 0.323463 0.081559
0.028123 0.216429 0.065006
0.050313 0.219538 0.068031
0.072640 0.222664 0.071073
0.095105 0.225806 0.074132
0.117708 0.228966 0.077208
0.140448 0.232143 0.080301
0.163325 0.235337 0.083411
0.186341 0.238547 0.086538
0.209493 0.241775 0.089682
0.232784 0.245020 0.092843
0.256212 0.248281 0.096021
0.311678 0.297880 0.070348
0.359235 0.300436 0.052257
0.386905 0.303199 0.053887
0.414736 0.305973 0.055529
0.442727 0.308758 0.057182
0.470879 0.311555 0.058846
0.499192 0.314363 0.060521
0.527664 0.317181 0.062207
0.556298 0.320011 0.063904
0.585092 0.322852 0.065613
0.614046 0.325705 0.067333
0.643161 0.328568 0.069064
0.672436 0.331443 0.070806
0.701872 0.334328 0.072559
0.731469 0.337225 0.074323
0.761225 0.340133 0.076099
0.791143 0.343053 0.077886
0.821221 0.345983 0.079683
0.851459 0.348925 0.081492
0.881858 0.351877 0.083313
0.912418 0.354841 0.085144
0.034486 0.241563 0.070961
0.056827 0.244766 0.074019
0.079306 0.247985 0.077095
0.101923 0.251222 0.080187
0.124677 0.254475 0.083296
0.147569 0.257746 0.086423
0.170598 0.261033 0.089566
0.193765 0.264337 0.092726
0.217070 0.267658 0.095903
0.240512 0.270997 0.099098
0.264062 0.274527 0.102075
0.338042 0.327467 0.053827
0.365721 0.330315 0.055468
0.393559 0.333175 0.057121
0.421559 0.336045 0.058784
0.449718 0.338927 0.060459
0.478039 0.341820 0.062145
0.506520 0.344724 0.063842
0.535161 0.347640 0.065550
0.563963 0.350566 0.067269
0.592925 0.353504 0.069000
0.622048 0.356453 0.070741
0.651331 0.359413 0.072494
0.680775 0.362384 0.074258
0.710380 0.365366 0.076033
0.740145 0.368360 0.077820
0.770070 0.371365 0.079617
0.800156 0.374380 0.081426
0.830402 0.377407 0.083245
0.860809 0.380445 0.085076
0.891377 0.383495 0.086919
0.920180 0.385966 0.089180
0.040914 0.267000 0.076981
0.063407 0.270296 0.080073
0.086038 0.273609 0.083182
0.108806 0.276939 0.086307
0.131712 0.280286 0.089450
0.154756 0.283650 0.092610
0.177937 0.287031 0.095786
0.201255 0.290429 0.098980
0.224684 0.294006 0.101974
0.248217 0.297793 0.104726
0.290888 0.301596 0.088495
0.341786 0.351492 0.095295
0.372249 0.360530 0.058723
0.400256 0.363486 0.060397
0.428424 0.366454 0.062083
0.456752 0.369432 0.063779
0.485241 0.372422 0.065487
0.513891 0.375423 0.067206
0.542701 0.378434 0.068936
0.571671 0.381458 0.070677
0.600802 0.384492 0.072430
0.630093 0.387537 0.074193
0.659545 0.390594 0.075968
0.689157 0.393662 0.077754
0.718930 0.396741 0.079551
0.748864 0.399831 0.081359
0.778958 0.402932 0.083178
0.809212 0.406044 0.085009
0.839627 0.409168 0.086851
0.868443 0.411707 0.089092
0.896641 0.414018 0.091490
0.924892 0.416332 0.093892
0.047408 0.292739 0.083067
0.070053 0.296129 0.086192
0.092835 0.299535 0.089334
0.115755 0.302959 0.092493
0.138813 0.306400 0.095669
0.162008 0.309857 0.098862
0.185315 0.313480 0.101873
0.208725 0.317327 0.104624
0.232273 0.321190 0.107393
0.255958 0.325071 0.110178
0.298781 0.328969 0.093980
0.322741 0.332883 0.096799
0.375620 0.384542 0.104090
0.406996 0.394134 0.063717
0.435333 0.397198 0.065424
0.463829 0.400273 0.067142
0.492487 0.403359 0.068872
0.521305 0.406457 0.070613
0.550283 0.409565 0.072365
0.579422 0.412685 0.074128
0.608721 0.415816 0.075902
0.638181 0.418958 0.077688
0.667802 0.422111 0.079484
0.697583 0.425275 0.081292
0.727524 0.428451 0.083111
0.757626 0.431638 0.084941
0.787888 0.434835 0.086783
0.816710 0.437445 0.089004
0.844857 0.439781 0.091402
0.873057 0.442120 0.093803
0.901310 0.444463 0.096209
0.929618 0.446810 0.098618
0.053967 0.318780 0.089218
0.076763 0.322263 0.092377
0.099697 0.325763 0.095552
0.122769 0.329281 0.098744
0.145955 0.332950 0.101772
0.169242 0.336857 0.104523
0.192666 0.340780 0.107290
0.216228 0.344720 0.110075
0.239927 0.348677 0.112877
0.263764 0.352652 0.115695
0.306738 0.356643 0.099531
0.330850 0.360651 0.102383
0.355100 0.364676 0.105252
0.409986 0.418124 0.113041
0.442284 0.428279 0.068808
0.470950 0.431451 0.070549
0.499775 0.434633 0.072300
0.528762 0.437827 0.074063
0.557909 0.441032 0.075837
0.587216 0.444249 0.077622
0.616684 0.447476 0.079418
0.646312 0.450715 0.081226
0.676101 0.453965 0.083044
0.706051 0.457226 0.084874
0.736161 0.460498 0.086715
0.764981 0.463182 0.088916
0.793076 0.465542 0.091313
0.821226 0.467906 0.093715
0.849428 0.470274 0.096120
0.877685 0.472646 0.098529
0.905994 0.475021 0.100941
0.934358 0.477400 0.103358
0.060591 0.345123 0.095435
0.083539 0.348700 0.098627
0.106604 0.352416 0.101671
0.129767 0.356382 0.104421
0.153068 0.360365 0.107188
0.176506 0.364365 0.109972
0.200082 0.368382 0.112773
0.223796 0.372416 0.115591
0.247647 0.376467 0.118426
0.290635 0.380535 0.102278
0.314761 0.384619 0.105147
0.339025 0.388721 0.108032
0.363426 0.392840 0.110935
0.387965 0.396975 0.113855
0.444885 0.452240 0.122149
0.478113 0.462964 0.073998
0.507107 0.466244 0.075771
0.536262 0.469534 0.077556
0.565577 0.472836 0.079352
0.595053 0.476149 0.081159
0.624690 0.479473 0.082977
0.654487 0.482808 0.084806
0.684444 0.486154 0.086647
0.713255 0.488917 0.088828
0.741300 0.491302 0.091225
0.769398 0.493691 0.093626
0.797550 0.496083 0.096031
0.825756 0.498480 0.098440
0.854014 0.500880 0.100853
0.882327 0.503283 0.103269
0.910693 0.505691 0.105689
0.939112 0.508102 0.108112
0.067262 0.371877 0.101571
0.090302 0.375903 0.104320
0.113479 0.379946 0.107086
0.136794 0.384005 0.109870
0.160246 0.388082 0.112670
0.183836 0.392176 0.115487
0.207564 0.396286 0.118321
0.231429 0.400414 0.121173
0.255432 0.404558 0.124041
0.298572 0.408719 0.107926
0.322850 0.412898 0.110828
0.347265 0.417093 0.113747
0.371818 0.421306 0.116683
0.396508 0.425535 0.119636
0.421336 0.429781 0.122606
0.480318 0.486889 0.131414
0.514482 0.498190 0.079286
0.543805 0.501577 0.081092
0.573289 0.504975 0.082910
0.602933 0.508385 0.084739
0.632738 0.511805 0.086579
0.661533 0.514650 0.088739
0.689527 0.517060 0.091137
0.717574 0.519473 0.093538
0.745675 0.521891 0.095943
0.773830 0.524312 0.098352
0.802038 0.526736 0.100764
0.830300 0.529165 0.103180
0.858615 0.531597 0.105600
0.886984 0.534033 0.108023
0.915406 0.536473 0.110450
0.943881 0.538916 0.112881
0.073899 0.399522 0.106984
0.097091 0.403641 0.109767
0.120419 0.407778 0.112567
0.143886 0.411931 0.115383
0.167490 0.416101 0.118217
0.191232 0.420288 0.121067
0.215111 0.424492 0.123935
0.239128 0.428714 0.126819
0.263282 0.432952 0.129721
0.306574 0.437207 0.113639
0.331003 0.441479 0.116575
0.355570 0.445768 0.119527
0.380275 0.450074 0.122496
0.405117 0.454396 0.125483
0.430097 0.458736 0.128486
0.455214 0.463093 0.131506
0.516283 0.522071 0.140835
0.551391 0.533956 0.084671
0.581044 0.537451 0.086511
0.609814 0.540381 0.088651
0.637757 0.542816 0.091049
0.665754 0.545254 0.093450
0.693804 0.547696 0.095854
0.721908 0.550142 0.098263
0.750065 0.552591 0.100675
0.778276 0.555045 0.103091
0.806540 0.557502 0.105511
0.834858 0.559962 0.107934
0.863230 0.562427 0.110361
0.891654 0.564895 0.112792
0.920133 0.567367 0.115226
0.948664 0.569842 0.117664
0.080601 0.427469 0.112463
0.103945 0.431682 0.115279
0.127425 0.435912 0.118112
0.151043 0.440158 0.120962
0.174799 0.444422 0.123829
0.198692 0.448703 0.126713
0.222723 0.453001 0.129614
0.246892 0.457316 0.132532
0.290198 0.461647 0.116466
0.314641 0.465996 0.119418
0.339223 0.470362 0.122387
0.363941 0.474744 0.125373
0.388798 0.479144 0.128375
0.413791 0.483560 0.131395
0.438923 0.487994 0.134432
0.464192 0.492444 0.137485
0.489598 0.496912 0.140556
0.551913 0.557222 0.150557
0.585992 0.568570 0.090960
0.613938 0.571033 0.093361
0.641937 0.573500 0.095766
0.669990 0.575970 0.098174
0.698096 0.578444 0.100586
0.726256 0.580922 0.103002
0.754470 0.583404 0.105421
0.782737 0.585890 0.107845
0.811057 0.588379 0.110272
0.839431 0.590872 0.112702
0.867859 0.593368 0.115137
0.896340 0.595869 0.117575
0.924874 0.598373 0.120017
0.953462 0.600880 0.122462
0.087369 0.455718 0.118008
0.110864 0.460024 0.120857
0.134496 0.464348 0.123723
0.158266 0.468688 0.126607
0.182174 0.473046 0.129507
0.206219 0.477420 0.132424
0.230401 0.481811 0.135358
0.254721 0.486220 0.138309
0.298179 0.490645 0.122277
0.322774 0.495087 0.125262
0.347507 0.499547 0.128265
0.372378 0.504023 0.131284
0.397386 0.508516 0.134319
0.422531 0.513026 0.137372
0.447814 0.517553 0.140442
0.472507 0.521583 0.143655
0.496423 0.525022 0.147024
0.520383 0.528467 0.150398
0.583569 0.589913 0.161082
0.618075 0.601797 0.098085
0.646131 0.604296 0.100497
0.674240 0.606799 0.102913
0.702403 0.609305 0.105332
0.730619 0.611815 0.107755
0.758889 0.614329 0.110182
0.787212 0.616847 0.112613
0.815588 0.619368 0.115047
0.844018 0.621893 0.117485
0.872502 0.624422 0.119927
0.901039 0.626954 0.122372
0.929630 0.629491 0.124821
0.958274 0.632031 0.127274
0.094202 0.484269 0.123618
0.117849 0.488669 0.126500
0.141633 0.493086 0.129400
0.165554 0.497520 0.132316
0.189613 0.501971 0.135250
0.213810 0.506439 0.138200
0.238144 0.510924 0.141168
0.262616 0.515426 0.144152
0.306226 0.519945 0.128154
0.330973 0.524481 0.131172
0.355857 0.529034 0.134208
0.380879 0.533604 0.137260
0.406039 0.538190 0.140329
0.430701 0.542304 0.143531
0.454575 0.545763 0.146900
0.478495 0.549227 0.150274
0.502460 0.552697 0.153654
0.526472 0.556173 0.157039
0.550529 0.559655 0.160430
0.615403 0.622781 0.171660
0.650339 0.635204 0.105243
0.678505 0.637739 0.107666
0.706724 0.640278 0.110093
0.734996 0.642820 0.112523
0.763322 0.645366 0.114957
0.791701 0.647916 0.117395
0.820134 0.650469 0.119837
0.848620 0.653027 0.122282
0.877160 0.655588 0.124731
0.905753 0.658152 0.127184
0.934400 0.660721 0.129640
0.963100 0.663293 0.132100
0.101101 0.513122 0.129293
0.124899 0.517616 0.132209
0.148835 0.522127 0.135142
0.172908 0.526654 0.138092
0.197119 0.531199 0.141058
0.221467 0.535761 0.144042
0.245953 0.540339 0.147043
0.289577 0.544935 0.131061
0.314338 0.549547 0.134096
0.339236 0.554177 0.137147
0.364273 0.558823 0.140216
0.388897 0.563023 0.143408
0.412730 0.566502 0.146776
0.436609 0.569986 0.150150
0.460533 0.573476 0.153529
0.484504 0.576972 0.156914
0.508520 0.580474 0.160305
0.532582 0.583981 0.163701
0.556690 0.587493 0.167104
0.580844 0.591012 0.170511
0.647414 0.655827 0.182289
0.682784 0.668791 0.112434
0.711059 0.671362 0.114868
0.739387 0.673937 0.117305
0.767769 0.676515 0.119747
0.796205 0.679097 0.122192
0.824694 0.681683 0.124641
0.853236 0.684272 0.127093
0.881832 0.686866 0.129550
0.910481 0.689462 0.132010
0.939184 0.692063 0.134473
0.967941 0.694667 0.136941
0.108065 0.542278 0.135034
0.132014 0.546865 0.137983
0.156102 0.551469 0.140949
0.180327 0.556090 0.143932
0.204689 0.560729 0.146932
0.229189 0.565384 0.149949
0.253827 0.570056 0.152984
0.297602 0.574745 0.137035
0.322515 0.579451 0.140103
0.347097 0.583741 0.143284
0.370889 0.587240 0.146652
0.394726 0.590744 0.150025
0.418609 0.594254 0.153405
0.442539 0.597770 0.156790
0.466514 0.601291 0.160180
0.490535 0.604818 0.163576
0.514601 0.608350 0.166978
0.538714 0.611889 0.170386
0.562873 0.615432 0.173799
0.587077 0.618982 0.177218
0.611327 0.622537 0.180643
0.679603 0.689050 0.192971
0.715408 0.702559 0.119657
0.743793 0.705166 0.122102
0.772231 0.707776 0.124551
0.800722 0.710391 0.127003
0.829268 0.713008 0.129459
0.857866 0.715630 0.131919
0.886518 0.718255 0.134383
0.915224 0.720885 0.136850
0.944179 0.723713 0.139438
0.973309 0.726667 0.142102
0.115094 0.571735 0.140840
0.139195 0.576416 0.143822
0.163435 0.581114 0.146822
0.187811 0.585829 0.149838
0.212325 0.590561 0.152872
0.236977 0.595310 0.155922
0.261767 0.600075 0.158990
0.305299 0.604458 0.143160
0.329050 0.607976 0.146528
0.352846 0.611500 0.149901
0.376688 0.615030 0.153280
0.400576 0.618566 0.156665
0.424510 0.622107 0.160055
0.448490 0.625654 0.163451
0.472516 0.629206 0.166853
0.496587 0.632764 0.170260
0.520705 0.636328 0.173673
0.544868 0.639897 0.177092
0.569077 0.643472 0.180516
0.593332 0.647053 0.183946
0.617633 0.650639 0.187382
0.641979 0.654231 0.190823
0.666372 0.657829 0.194270
0.748213 0.736507 0.126913
0.776707 0.739149 0.129369
0.805255 0.741796 0.131829
0.833856 0.744446 0.134292
0.862511 0.747100 0.136759
0.891403 0.749941 0.139340
0.920483 0.752921 0.142003
0.949616 0.755903 0.144671
0.978803 0.758890 0.147342
0.122189 0.601495 0.146711
0.146442 0.606269 0.149727
0.170833 0.611061 0.152760
0.195361 0.615869 0.155810
0.220027 0.620695 0.158876
0.244505 0.625173 0.162036
0.287214 0.628711 0.146404
0.310969 0.632255 0.149777
0.334770 0.635805 0.153156
0.358617 0.639360 0.156540
0.382510 0.642921 0.159931
0.406449 0.646488 0.163326
0.430433 0.650060 0.166728
0.454463 0.653638 0.170135
0.478540 0.657222 0.173548
0.502662 0.660811 0.176966
0.526830 0.664406 0.180390
0.551043 0.668007 0.183820
0.575303 0.671613 0.187256
0.599608 0.675225 0.190697
0.623960 0.678842 0.194143
0.648357 0.682466 0.197596
0.672800 0.686095 0.201054
0.697289 0.689729 0.204517
0.781197 0.770635 0.134201
0.809801 0.773313 0.136668
0.838631 0.776168 0.139242
0.867660 0.779172 0.141905
0.896742 0.782179 0.144573
0.925878 0.785191 0.147244
0.955067 0.788206 0.149919
0.984310 0.791225 0.152597
0.129349 0.631557 0.152648
0.153754 0.636425 0.155697
0.178296 0.641310 0.158763
0.202713 0.645886 0.161912
0.226381 0.649444 0.165280
0.250095 0.653008 0.168653
0.292855 0.656578 0.153031
0.316661 0.660153 0.156416
0.340513 0.663734 0.159806
0.364410 0.667321 0.163201
0.388353 0.670913 0.166603
0.412343 0.674511 0.170010
0.436378 0.678114 0.173422
0.460459 0.681724 0.176840
0.484585 0.685338 0.180264
0.508758 0.688959 0.183694
0.532976 0.692585 0.187129
0.557241 0.696217 0.190570
0.581551 0.699854 0.194016
0.605907 0.703497 0.197469
0.630309 0.707146 0.200926
0.654757 0.710801 0.204390
0.679250 0.714461 0.207859
0.703790 0.718127 0.211334
0.728526 0.721949 0.214913
0.803639 0.794133 0.229311
0.843872 0.808454 0.144475
0.872957 0.811490 0.147146
0.902096 0.814530 0.149820
0.931288 0.817573 0.152499
0.960533 0.820620 0.155181
0.989832 0.823671 0.157867
0.136574 0.661921 0.158650
0.160924 0.666598 0.161789
0.184551 0.670176 0.165156
0.208224 0.673760 0.168529
0.231943 0.677350 0.171907
0.255708 0.680945 0.175291
0.298518 0.684546 0.159681
0.322375 0.688152 0.163076
0.346277 0.691764 0.166477
0.370225 0.695382 0.169884
0.394219 0.699005 0.173296
0.418258 0.702634 0.176715
0.442344 0.706269 0.180138
0.466476 0.709910 0.183568
0.490653 0.713556 0.187003
0.514876 0.717207 0.190443
0.539145 0.720865 0.193890
0.563460 0.724528 0.197342
0.587821 0.728196 0.200799
0.612227 0.731871 0.204262
0.636680 0.735551 0.207731
0.661178 0.739236 0.211206
0.685863 0.743068 0.214778
0.710752 0.747065 0.218460
0.735688 0.751067 0.222148
0.760670 0.755075 0.225841
0.837576 0.829041 0.240831
0.878269 0.843920 0.152400
0.907463 0.846992 0.155082
0.936712 0.850067 0.157768
0.966013 0.853147 0.160458
0.995368 0.856230 0.163151
0.142725 0.690907 0.165032
0.166356 0.694510 0.168404
0.190034 0.698120 0.171783
0.213757 0.701735 0.175167
0.237527 0.705356 0.178556
0.261342 0.708982 0.181951
0.304203 0.712614 0.166352
0.328110 0.716252 0.169759
0.352063 0.719895 0.173171
0.376061 0.723544 0.176589
0.400106 0.727199 0.180012
0.424196 0.730859 0.183441
0.448332 0.734525 0.186876
0.472514 0.738196 0.190317
0.496742 0.741874 0.193763
0.521016 0.745557 0.197214
0.545335 0.749245 0.200672
0.569701 0.752939 0.204135
0.594112 0.756639 0.207604
0.618569 0.760345 0.211078
0.643202 0.764185 0.214643
