白日梦.cube
# 白日梦 LUT v5 - 基于12张作品数值分析
TITLE "白日梦"
LUT_3D_SIZE 5
DOMAIN_MIN 0.000000 0.000000 0.000000
DOMAIN_MAX 0.903226 0.903226 0.903226
0.007631 0.040417 0.038477
0.172416 0.050672 0.050188
0.347354 0.059909 0.063791
0.515382 0.040902 0.049406
0.711461 0.051518 0.064522
0.049836 0.204945 0.077768
0.164459 0.162991 0.068366
0.374191 0.219167 0.063957
0.570298 0.235477 0.077365
0.773934 0.253727 0.089255
0.053967 0.318780 0.089218
0.216228 0.344720 0.110075
0.442284 0.428279 0.068808
0.646312 0.450715 0.081226
0.849428 0.470274 0.096120
0.101101 0.513122 0.129293
0.289577 0.544935 0.131061
0.460533 0.573476 0.153529
0.682784 0.668791 0.112434
0.881832 0.686866 0.129550
0.148128 0.718889 0.171658
0.333867 0.744452 0.176463
0.502853 0.770292 0.200545
0.675104 0.797428 0.225569
0.905982 0.899391 0.264028
0.010694 0.045223 0.192333
0.179559 0.054131 0.209156
0.336136 0.034608 0.202588
0.525953 0.044885 0.221025
0.723635 0.055710 0.240009
0.029291 0.188341 0.195311
0.174302 0.170894 0.210399
0.383568 0.224746 0.239301
0.581012 0.242371 0.254937
0.786251 0.260830 0.270695
0.062988 0.328114 0.234403
0.226532 0.355319 0.257262
0.451803 0.436769 0.250106
0.657435 0.459413 0.266391
0.855666 0.476612 0.284303
0.110584 0.525153 0.279631
0.300503 0.557283 0.284671
0.468669 0.582819 0.309299
0.688624 0.675661 0.301858
0.888206 0.693805 0.320263
0.155508 0.728602 0.327388
0.341729 0.754271 0.333284
0.511196 0.780217 0.358456
0.684728 0.808259 0.385094
0.916620 0.910904 0.433097
0.016358 0.048557 0.350333
0.186778 0.057667 0.370908
0.345183 0.038462 0.373209
0.536603 0.048948 0.395514
0.735666 0.060907 0.416993
0.017263 0.201608 0.372399
0.201211 0.215733 0.394684
0.392826 0.231224 0.416301
0.591805 0.249344 0.435379
0.798648 0.268011 0.455005
0.072027 0.338180 0.381144
0.236957 0.366040 0.406823
0.461402 0.445338 0.434273
0.664566 0.466340 0.454106
0.861931 0.482976 0.473442
0.120188 0.537305 0.432344
0.309373 0.567678 0.440142
0.476844 0.592201 0.465861
0.694490 0.682557 0.492239
0.895240 0.701403 0.512310
0.162929 0.738357 0.483910
0.349630 0.764131 0.490896
0.520098 0.790702 0.517498
0.694393 0.819130 0.545410
0.927299 0.922458 0.602999
0.022100 0.051968 0.511117
0.194075 0.061280 0.535442
0.354309 0.042395 0.546700
0.547333 0.053090 0.572872
0.747732 0.066363 0.596580
0.023591 0.206929 0.545748
0.209143 0.221262 0.571900
0.402095 0.238068 0.595745
0.602677 0.256397 0.618691
0.811124 0.275273 0.642184
0.056997 0.409504 0.594912
0.250106 0.431472 0.617837
0.451081 0.453986 0.641310
0.650322 0.472662 0.662912
0.848222 0.489367 0.683538
0.129913 0.549578 0.587430
0.317108 0.576996 0.596405
0.485060 0.601624 0.623214
0.700383 0.689480 0.683577
0.882516 0.709243 0.725442
0.170390 0.748151 0.641223
0.357573 0.774031 0.649299
0.529322 0.801508 0.677515
0.704098 0.830042 0.706518
0.938021 0.934056 0.773734
0.027918 0.055456 0.674683
0.176752 0.036052 0.693568
0.363515 0.046408 0.723061
0.558085 0.057548 0.752749
0.759878 0.071900 0.779036
0.029999 0.212329 0.721966
0.217123 0.227002 0.751793
0.411443 0.244992 0.778059
0.613629 0.263529 0.804872
0.822293 0.282278 0.831739
0.063548 0.417815 0.777083
0.258261 0.439991 0.803876
0.460293 0.462417 0.830943
0.656106 0.479009 0.852675
0.854540 0.495784 0.874590
0.098473 0.642466 0.830147
0.291795 0.660272 0.851873
0.487738 0.678259 0.873780
0.686407 0.696533 0.895933
0.889818 0.717110 0.919530
0.177891 0.757986 0.799327
0.317212 0.880050 0.895068
0.518132 0.901840 0.918659
0.721674 0.923812 0.942431
0.927838 0.945967 0.966387
