白日梦.cube
# 白日梦 LUT v5 - 基于12张作品数值分析
TITLE "白日梦"
LUT_3D_SIZE 8
DOMAIN_MIN 0.000000 0.000000 0.000000
DOMAIN_MAX 0.903226 0.903226 0.903226
0.007631 0.040417 0.038477
0.099778 0.046876 0.044521
0.196940 0.051959 0.052099
0.296593 0.057215 0.059850
0.380142 0.033655 0.038943
0.488013 0.039430 0.047291
0.598453 0.045385 0.055817
0.711461 0.051518 0.064522
0.031348 0.132582 0.060528
0.119101 0.143089 0.072171
0.194670 0.125922 0.038639
0.300102 0.132887 0.046980
0.408101 0.140029 0.055500
0.518669 0.147351 0.064199
0.631730 0.155161 0.072616
0.747034 0.164498 0.079215
0.015594 0.167066 0.053292
0.103965 0.178855 0.065228
0.194537 0.190915 0.077435
0.326054 0.243095 0.063876
0.436689 0.252033 0.072377
0.549554 0.262558 0.078969
0.664986 0.273261 0.085739
0.782987 0.284143 0.092688
0.040914 0.267000 0.076981
0.131712 0.280286 0.089450
0.224684 0.294006 0.101974
0.372249 0.360530 0.058723
0.485241 0.372422 0.065487
0.600802 0.384492 0.072430
0.718930 0.396741 0.079551
0.839627 0.409168 0.086851
0.067262 0.371877 0.101571
0.160246 0.388082 0.112670
0.255432 0.404558 0.124041
0.371818 0.421306 0.116683
0.514482 0.498190 0.079286
0.632738 0.511805 0.086579
0.745675 0.521891 0.095943
0.858615 0.531597 0.105600
0.094202 0.484269 0.123618
0.189613 0.501971 0.135250
0.306226 0.519945 0.128154
0.406039 0.538190 0.140329
0.502460 0.552697 0.153654
0.650339 0.635204 0.105243
0.763322 0.645366 0.114957
0.877160 0.655588 0.124731
0.122189 0.601495 0.146711
0.220027 0.620695 0.158876
0.334770 0.635805 0.153156
0.430433 0.650060 0.166728
0.526830 0.664406 0.180390
0.623960 0.678842 0.194143
0.781197 0.770635 0.134201
0.896742 0.782179 0.144573
0.148128 0.718889 0.171658
0.243132 0.733462 0.185227
0.357870 0.748126 0.179886
0.454342 0.762881 0.193636
0.551548 0.777726 0.207476
0.650205 0.793380 0.221876
0.750077 0.809605 0.236681
0.905982 0.899391 0.264028
0.008290 0.043818 0.125471
0.103469 0.048794 0.134101
0.201139 0.053943 0.142903
0.301300 0.059265 0.151879
0.385518 0.035836 0.135081
0.493913 0.041680 0.144692
0.604876 0.047702 0.154481
0.718408 0.053904 0.164449
0.036077 0.136556 0.139587
0.124312 0.147169 0.152321
0.199133 0.128557 0.134731
0.305088 0.135589 0.144335
0.413611 0.142800 0.154118
0.524703 0.150189 0.164079
0.638135 0.158700 0.172822
0.753963 0.168104 0.180684
0.020429 0.171529 0.132818
0.109272 0.183421 0.145822
0.200315 0.195584 0.159098
0.331174 0.246387 0.163710
0.442181 0.256025 0.172536
0.555568 0.266618 0.180391
0.671524 0.277389 0.188425
0.790049 0.288339 0.196637
0.045953 0.272034 0.158605
0.137222 0.285423 0.172142
0.230574 0.299788 0.185009
0.377350 0.365043 0.160099
0.490866 0.377003 0.168126
0.606950 0.389141 0.176331
0.725602 0.401458 0.184716
0.843838 0.412920 0.193700
0.072412 0.378024 0.184566
0.165868 0.394332 0.196734
0.261524 0.410911 0.209173
0.378382 0.427762 0.202883
0.520240 0.503360 0.184404
0.636827 0.515915 0.193333
0.749084 0.525584 0.203351
0.862198 0.535314 0.213429
0.099556 0.490986 0.208710
0.195438 0.508792 0.221411
0.312522 0.526869 0.215383
0.411421 0.544119 0.228731
0.507166 0.558001 0.242572
0.653619 0.639071 0.213057
0.766775 0.649256 0.223192
0.880788 0.659501 0.233386
0.127745 0.608783 0.233901
0.225143 0.627030 0.247223
0.339229 0.641229 0.242061
0.435049 0.655519 0.255989
0.531603 0.669900 0.270007
0.628890 0.684370 0.284117
0.775717 0.765739 0.313241
0.900900 0.786773 0.254343
0.152340 0.724434 0.260550
0.247502 0.739043 0.274475
0.362397 0.753741 0.269490
0.459026 0.768530 0.283596
0.556389 0.783410 0.297792
0.655660 0.799556 0.312847
0.755690 0.815816 0.328009
0.912056 0.905964 0.360537
0.011498 0.045695 0.214734
0.107185 0.050737 0.224589
0.205363 0.055952 0.234616
0.306032 0.061340 0.244817
0.390920 0.038043 0.232156
0.499839 0.043955 0.243030
0.611326 0.050046 0.254082
0.725381 0.056315 0.265313
0.028417 0.144025 0.234244
0.126720 0.150566 0.244439
0.203622 0.131217 0.231760
0.310100 0.138317 0.242627
0.419147 0.145596 0.253672
0.530762 0.153053 0.264897
0.644566 0.162264 0.273966
0.760917 0.171737 0.283090
0.025304 0.176031 0.213120
0.114618 0.188026 0.227192
0.206133 0.200293 0.241536
0.336320 0.249704 0.264481
0.447698 0.260042 0.273633
0.561609 0.270703 0.282751
0.678089 0.281543 0.292047
0.797137 0.292561 0.301522
0.051031 0.277107 0.241003
0.142772 0.290600 0.255609
0.236503 0.305610 0.268819
0.382477 0.369582 0.262412
0.496517 0.381609 0.271702
0.613125 0.393816 0.281170
0.732300 0.406201 0.290817
0.847386 0.416448 0.301015
0.077602 0.384210 0.268337
0.171529 0.400621 0.281572
0.286657 0.417304 0.276080
0.384986 0.434259 0.289859
0.526025 0.508556 0.290459
0.640070 0.519594 0.300632
0.752502 0.529287 0.311071
0.865791 0.539039 0.321570
0.104948 0.497743 0.294578
0.201302 0.515652 0.308347
0.318857 0.533833 0.303387
0.415983 0.549401 0.317551
0.511884 0.563317 0.331748
0.656906 0.642948 0.321183
0.770238 0.653155 0.331739
0.884425 0.663422 0.342354
0.133341 0.616111 0.321866
0.229458 0.632433 0.336030
0.343701 0.646667 0.331224
0.439678 0.660991 0.345508
0.536389 0.675406 0.359883
0.633833 0.689912 0.374348
0.781567 0.772089 0.408911
0.905066 0.791376 0.364426
0.156566 0.729993 0.349700
0.251884 0.744636 0.363981
0.366937 0.759369 0.359352
0.463723 0.774193 0.373814
0.561676 0.789540 0.388650
0.661129 0.805744 0.404077
0.761315 0.822039 0.419594
0.918143 0.912552 0.457318
0.014732 0.047597 0.304906
0.110927 0.052705 0.315986
0.209613 0.057986 0.327238
0.289474 0.034474 0.318211
0.396348 0.040276 0.330168
0.505790 0.046256 0.342305
0.617801 0.052415 0.354620
0.732233 0.059362 0.366210
0.031781 0.146499 0.326821
0.103702 0.126913 0.317774
0.208136 0.133903 0.329725
0.315138 0.141071 0.341855
0.424709 0.148418 0.354164
0.536715 0.156493 0.365837
0.651022 0.165855 0.376046
0.767897 0.175396 0.386433
0.020100 0.227442 0.329283
0.124662 0.235799 0.341406
0.231793 0.244334 0.353708
0.341374 0.253536 0.365465
0.453241 0.264086 0.375667
0.567676 0.274815 0.386048
0.684679 0.285723 0.396607
0.804250 0.296809 0.407345
0.056149 0.282219 0.324177
0.148299 0.296182 0.339361
0.242471 0.311471 0.353404
0.387630 0.374147 0.365663
0.502194 0.386242 0.376215
0.619325 0.398517 0.386946
0.738378 0.410726 0.397840
0.850942 0.419986 0.408643
0.082831 0.390435 0.352882
0.177229 0.406950 0.367186
0.292828 0.423736 0.362762
0.391629 0.440795 0.377609
0.531571 0.513627 0.397444
0.643322 0.523283 0.408244
0.755929 0.532998 0.419104
0.869392 0.542773 0.430024
0.110381 0.504539 0.381221
0.207206 0.522552 0.396058
0.325232 0.540837 0.392167
0.420557 0.554696 0.406630
0.516616 0.568646 0.421183
0.660203 0.646832 0.429621
0.773709 0.657063 0.440598
0.888070 0.667352 0.451634
0.138977 0.623478 0.410606
0.233786 0.637849 0.425096
0.348187 0.652118 0.420646
0.444321 0.666477 0.435286
0.541189 0.680926 0.450017
0.638790 0.695466 0.464838
0.787432 0.778454 0.504853
0.909241 0.795987 0.474821
0.160804 0.735566 0.439109
0.256280 0.750243 0.453746
0.371490 0.765010 0.449473
0.468433 0.779869 0.464291
0.567000 0.795708 0.479782
0.666610 0.811946 0.495565
0.766954 0.828275 0.511438
0.924244 0.919153 0.554371
0.017991 0.049524 0.395987
0.114693 0.054698 0.408292
0.213887 0.060045 0.420769
0.294404 0.036665 0.415897
0.401802 0.042535 0.429118
0.511768 0.048583 0.442517
0.624302 0.054810 0.456095
0.739105 0.062458 0.468011
0.035169 0.148997 0.420307
0.107719 0.129557 0.415414
0.212676 0.136615 0.428628
0.320202 0.143851 0.442021
0.430297 0.151266 0.455592
0.542674 0.160041 0.467592
0.657505 0.169472 0.479063
0.774904 0.179080 0.490713
0.023727 0.230607 0.428139
0.128813 0.239032 0.441525
0.236467 0.247635 0.455090
0.346419 0.257537 0.467173
0.458810 0.268156 0.478638
0.573768 0.278953 0.490281
0.691295 0.289928 0.502104
0.811390 0.301083 0.514104
0.042813 0.343916 0.454588
0.150340 0.354945 0.466755
0.260291 0.366752 0.478213
0.372810 0.378737 0.489850
0.487896 0.390901 0.501665
0.605551 0.403244 0.513659
0.721769 0.414250 0.525359
0.834508 0.423532 0.536582
0.088099 0.396699 0.438203
0.182969 0.413318 0.453576
0.299040 0.430208 0.450220
0.398311 0.447370 0.466135
0.534657 0.517302 0.504947
0.646582 0.526980 0.516168
0.759364 0.536718 0.527449
0.873001 0.546515 0.538790
0.115852 0.511375 0.468639
0.213149 0.529491 0.484545
0.329663 0.546110 0.481148
0.425145 0.560004 0.495967
0.521361 0.573989 0.510876
0.663508 0.650726 0.538372
0.777188 0.660979 0.549769
0.891975 0.671542 0.561376
0.143303 0.629066 0.499604
0.238127 0.643279 0.514420
0.352685 0.657582 0.510326
0.448976 0.671975 0.525322
0.546001 0.686459 0.540409
0.643952 0.701226 0.555712
0.793310 0.784832 0.601068
0.913424 0.800608 0.585529
0.165056 0.741151 0.528776
0.260689 0.755863 0.543769
0.376056 0.770665 0.539852
0.473305 0.785706 0.555123
0.572338 0.801888 0.571172
0.672105 0.818161 0.587311
0.772606 0.834525 0.603541
0.930358 0.925768 0.651696
0.021275 0.051476 0.487977
0.118485 0.056716 0.501506
0.194007 0.033123 0.500215
0.299361 0.038882 0.514520
0.407282 0.044820 0.529004
0.517772 0.050936 0.543666
0.630777 0.057447 0.558187
0.746004 0.065579 0.570749
0.038583 0.151521 0.514702
0.111761 0.132227 0.513991
0.217243 0.139353 0.528468
0.325292 0.146657 0.543124
0.435873 0.154296 0.557728
0.548659 0.163616 0.570283
0.664013 0.173114 0.583018
0.781936 0.182791 0.595930
0.027380 0.233798 0.527932
0.132989 0.242291 0.542581
0.241144 0.251057 0.557269
0.351490 0.261565 0.569818
0.464405 0.272251 0.582546
0.579887 0.283116 0.595452
0.697938 0.294160 0.608537
0.818556 0.305383 0.621801
0.046592 0.347730 0.556811
0.154498 0.359426 0.569354
0.264972 0.371301 0.582075
0.378015 0.383354 0.594974
0.493625 0.395586 0.608053
0.611804 0.407997 0.621309
0.725168 0.417782 0.633190
0.838081 0.427087 0.644834
0.065716 0.470262 0.581603
0.176318 0.483504 0.594497
0.289489 0.496924 0.607568
0.405227 0.510523 0.620819
0.517751 0.520985 0.632762
0.629851 0.530686 0.644405
0.742807 0.540446 0.656107
0.856620 0.550266 0.667868
0.121363 0.518250 0.556832
0.219131 0.536470 0.573806
0.334107 0.551397 0.570387
0.429746 0.565326 0.585562
0.526119 0.579345 0.600827
0.666822 0.654628 0.647434
0.780676 0.664904 0.659253
0.876123 0.675974 0.691570
0.147501 0.634475 0.588831
0.242482 0.648721 0.604002
0.357196 0.663059 0.600264
0.453645 0.677487 0.615617
0.550827 0.692005 0.631060
0.649393 0.707264 0.647018
0.799201 0.791224 0.697554
0.917616 0.805236 0.696549
0.169321 0.746749 0.618701
0.265111 0.761495 0.634050
0.380635 0.776332 0.630490
0.478498 0.791865 0.646416
0.577689 0.808082 0.662821
0.677613 0.824390 0.679316
0.778271 0.840788 0.695902
0.936487 0.932396 0.749292
0.024584 0.053453 0.580876
0.122302 0.058759 0.595630
0.198466 0.035298 0.598513
0.304343 0.041125 0.614081
0.412788 0.047131 0.629827
0.523801 0.053315 0.645752
0.637178 0.060527 0.660599
0.752928 0.068726 0.674424
0.012393 0.127907 0.597944
0.115830 0.134923 0.613505
0.221835 0.142117 0.629245
0.330409 0.149489 0.645163
0.441360 0.157828 0.660094
0.554670 0.167216 0.673912
0.670548 0.176783 0.687909
0.788994 0.186528 0.702085
0.031059 0.237015 0.628663
0.137192 0.245576 0.644575
0.245718 0.255042 0.659589
0.356588 0.265618 0.673400
0.470026 0.276373 0.687391
0.586032 0.287306 0.701560
0.704606 0.298418 0.715908
0.823310 0.309067 0.729768
0.050252 0.352168 0.659084
0.158682 0.363932 0.672889
0.269680 0.375875 0.686873
0.383246 0.387997 0.701036
0.499380 0.400297 0.715377
0.616344 0.412054 0.729327
0.728576 0.421322 0.741333
0.841664 0.430650 0.753399
0.069510 0.475290 0.686355
0.180636 0.488600 0.700511
0.294330 0.502088 0.714846
0.409436 0.515012 0.728886
0.520854 0.524676 0.740890
0.633129 0.534400 0.752954
0.746260 0.544183 0.765076
0.860246 0.554026 0.777259
0.089456 0.603791 0.714315
0.202587 0.617941 0.728446
0.313192 0.628001 0.740448
0.424653 0.638121 0.752509
0.536971 0.648300 0.764629
0.650144 0.658539 0.776810
0.764173 0.668837 0.789049
0.880279 0.680415 0.802075
0.151711 0.639896 0.678315
0.246849 0.654177 0.693843
0.361721 0.668549 0.690461
0.458327 0.683011 0.706169
0.555666 0.697564 0.721969
0.668562 0.785644 0.801594
0.784761 0.797729 0.814708
0.901817 0.809873 0.827881
0.173600 0.752361 0.708885
0.288547 0.767142 0.705590
0.385228 0.782013 0.721386
0.483705 0.798037 0.737967
0.583053 0.814289 0.754728
0.683134 0.830631 0.771579
0.783949 0.847064 0.788521
0.942629 0.939039 0.847161
0.027918 0.055456 0.674683
0.126144 0.060828 0.690663
0.202951 0.037498 0.697748
0.309351 0.043394 0.714578
0.418320 0.049468 0.731588
0.529857 0.055720 0.748776
0.643605 0.063632 0.763948
0.759878 0.071900 0.779036
0.015964 0.130561 0.697132
0.119925 0.137644 0.713956
0.226454 0.144907 0.730959
0.335551 0.152347 0.748140
0.446873 0.161386 0.763396
0.560707 0.170842 0.778478
0.677108 0.180477 0.793737
0.796078 0.190290 0.809176
0.034763 0.240258 0.730330
0.141420 0.248887 0.747505
0.250318 0.259053 0.762845
0.361711 0.269697 0.777920
0.475673 0.280520 0.793173
0.592202 0.291522 0.808605
0.711300 0.302702 0.824215
0.826857 0.312443 0.837818
0.053938 0.356632 0.762294
0.162892 0.368465 0.777362
0.274413 0.380476 0.792609
0.388503 0.392665 0.808034
0.505160 0.405033 0.823638
0.619586 0.415581 0.837362
0.731992 0.424872 0.849789
0.845255 0.434222 0.862275
0.073329 0.480343 0.792045
0.184979 0.493721 0.807463
0.299197 0.507278 0.823061
0.412373 0.518690 0.836906
0.523966 0.528377 0.849330
0.636415 0.538123 0.861815
0.749721 0.547929 0.874359
0.863882 0.557794 0.886962
0.093409 0.609434 0.822484
0.205220 0.621770 0.836450
0.315999 0.631852 0.848872
0.427635 0.641995 0.861354
0.540127 0.652197 0.873896
0.653475 0.662458 0.886497
0.768113 0.673213 0.899416
0.884444 0.684865 0.912893
0.108091 0.735299 0.848414
0.218913 0.745837 0.860894
0.330592 0.756435 0.873434
0.443127 0.767093 0.886033
0.556904 0.778197 0.898922
0.672422 0.790245 0.912397
0.788796 0.802352 0.925931
0.906026 0.814519 0.939525
0.177891 0.757986 0.799327
0.292995 0.772801 0.796388
0.345754 0.883152 0.898427
0.460459 0.895596 0.911900
0.576020 0.908099 0.925432
0.692437 0.920662 0.939024
0.809709 0.933285 0.952676
0.927838 0.945967 0.966387
